src/assets/bg_wheel_of_fortune.svg

<svg width="511" height="512" viewBox="0 0 511 512" fill="none" xmlns="http://www.w3.org/2000/svg">
<mask id="mask0_2001_9765" style="mask-type:alpha" maskUnits="userSpaceOnUse" x="-17" y="-30" width="546" height="546">
<path d="M280.188 4.84375L255.392 243.224L347.393 21.9193L280.188 4.84375Z" fill="#F9B233"/>
<path d="M230.584 481.749L255.393 243.224L163.335 464.663L230.584 481.749Z" fill="#F9B233"/>
<path d="M493.14 267.801L255.393 243.224L476.04 335.104L493.14 267.801Z" fill="#F9B233"/>
<path d="M34.9746 151.437L17.8963 218.653L255.393 243.224L34.9746 151.437Z" fill="#F9B233"/>
<path d="M255.789 242.476L143.33 -29.9289L70.1938 14.1301L255.789 242.476Z" fill="#F9B233"/>
<path d="M441.583 471.078L255.789 242.476L368.329 515.061L441.583 471.078Z" fill="#F9B233"/>
<path d="M484.65 56.7932L255.789 242.476L528.168 130.297L484.65 56.7932Z" fill="#F9B233"/>
<path d="M26.793 428.284L255.789 242.476L-16.2983 354.545L26.793 428.284Z" fill="#F9B233"/>
</mask>
<g mask="url(#mask0_2001_9765)">
<circle cx="255.657" cy="242.408" r="236.289" transform="rotate(14.256 255.657 242.408)" fill="url(#paint0_radial_2001_9765)"/>
</g>
<defs>
<radialGradient id="paint0_radial_2001_9765" cx="0" cy="0" r="1" gradientUnits="userSpaceOnUse" gradientTransform="translate(255.657 242.408) rotate(90) scale(236.289)">
<stop stop-color="white"/>
<stop offset="1" stop-color="white" stop-opacity="0"/>
</radialGradient>
</defs>
</svg>

<svg width="511" height="512" fill="none" xmlns="http://www.w3.org/2000/svg"><mask id="a" style="mask-type:alpha" maskUnits="userSpaceOnUse" x="-17" y="-30" width="546" height="546"><path d="m280.188 4.844-24.796 238.38 92.001-221.305-67.205-17.075zM230.584 481.749l24.809-238.525-92.058 221.439 67.249 17.086zM493.14 267.801l-237.747-24.577 220.647 91.88 17.1-67.303z" fill="#F9B233"/><path d="m34.975 151.437-17.079 67.216 237.497 24.571-220.418-91.787zM255.789 242.476 143.33-29.929l-73.136 44.06 185.595 228.345zM441.583 471.078 255.789 242.476l112.54 272.585 73.254-43.983z" fill="#F9B233"/><path d="M484.65 56.793 255.789 242.476l272.379-112.179-43.518-73.504zM26.793 428.284l228.996-185.808-272.087 112.069 43.091 73.739z" fill="#F9B233"/></mask><g mask="url(#a)"><circle cx="255.657" cy="242.408" r="236.289" transform="rotate(14.256 255.657 242.408)" fill="url(#b)"/></g><defs><radialGradient id="b" cx="0" cy="0" r="1" gradientUnits="userSpaceOnUse" gradientTransform="rotate(90 6.624 249.032) scale(236.289)"><stop stop-color="#fff"/><stop offset="1" stop-color="#fff" stop-opacity="0"/></radialGradient></defs></svg>
